X:1
T:Spes Cœlestis, CMD
T:Spes Cœlestis, CMD
T:W. A. Smith, before 1912
T:Public Domain Courtesy of the Cyber Hymnal™
C:W. A. Smith, before 1912
Z:Public Domain
Z:Courtesy of the Cyber Hymnal™
%%score ( 1 2 ) ( 3 4 )
L:1/8
Q:1/4=115
M:6/8
K:C
V:1 treble 
V:2 treble 
V:3 bass 
V:4 bass 
V:1
 [EG] | [EG]2 [Ec] (cB)[FA] | [FA]2 [FG] [EG]2 [CE] | [EG]2 [CF] C2 [B,D] | [CE]3- [CE]2 [CE] | %5
 [B,E]2 [B,D] [B,D]2 C | [CF]2 [B,F] [CE]2 [CE] | (DE)[C^F] [CB]2 [CA] | [B,G]3- [B,G]2 G | %9
 [Fd]2 [Fc] [FB]2 [FA] | [EA]2 [EG] [CE]2 [CE] | [B,E]2 [B,E] [^DB]2 [DB] | E3 [FA]2 [FG] | %13
 [EG]2 [Ec] (cB)[FA] | [FA]2 [FG] [EG]2 [EG] | (AB)[^Fc] [Ge]2 [=Fd] | [Ec]3- [Ec]2 |] %17
V:2
 x | x3 F2 x | x6 | x3 C2 x | x6 | x5 C | x6 | C2 x4 | x5 G | x6 | x6 | x6 | E3 x3 | x3 F2 x | x6 | %15
 F2 x4 | x5 |] %17
V:3
 [C,C] | [C,C]2 [C,G,] [C,^G,]2 [C,A,] | [C,B,]2 [C,B,] [C,C]2 [C,G,] | %3
 [C,_B,]2 [C,A,] [C,_A,]2 [C,A,] | [C,G,]3- [C,G,]2 [C,G,] | G,2 G, [F,G,]2 [E,G,] | %6
 [D,G,]2 [B,,G,] [C,G,]2 [C,G,] | (^F,G,)[D,A,] [D,F,]2 [D,F,] | G,3- G,2 [G,B,] | %9
 [G,B,]2 [G,C] [G,D]2 [G,B,] | [C,C]2 [C,C] [C,G,]2 [A,,A,] | [B,,G,]2 [B,,G,] [B,,^F,]2 [B,,A,] | %12
 [E,G,]3 [D,B,]2 [D,B,] | [C,C]2 [C,G,] [C,^G,]2 [C,A,] | [C,B,]2 [C,B,] [C,C]2 C | %15
 [A,C]2 [_A,C] [G,C]2 [G,B,] | [C,C]3- [C,C]2 |] %17
V:4
 x | x6 | x6 | x6 | x6 | G,2 G, x3 | x6 | D,2 x4 | G,3- G,2 x | x6 | x6 | x6 | x6 | x6 | %14
 x5 (C/B,/) | x6 | x5 |] %17

